X:1
T:L'Éternel est mon berger
T:L'Éternel est mon berger
T:ED. OEMKENS
C:ED. OEMKENS
%%score 1 2 3
L:1/8
Q:1/4=92
M:4/4
K:Eb
V:1 treble nm="Violon" snm="Vln."
V:2 treble nm="Violon" snm="Vln."
V:3 treble nm="Violon" snm="Vln."
V:1
"^Andante"!mf! E2 F2 G3 z | G2 A2 B3 z | Bedc B2 EF | G2 F2 E2 z2 | c=BcB A2 e2 | _BcBG B2 B2 | %6
 AGAG A2 B2 | GBAG G2 F2 | EFGA Bcde | fedc!f! B2 BA | G4 F2 F2 | E6 z2 |!p! G4 GcB=A | %13
 B2 D2!mf! !fermata!E2 ed | c2 c2 cedc | c4 B2 z2 | B4 Bcdf | e2 B2 B2 Bc | d2 Bc d2 e2 | %19
 c4 B2!p! B2 | c2 c2 d2 d2 | e4 z2 G2 | G2 G2 A2 B2 | c2 c2 d2 e2 | B2 c2 A2 B2 | G2 z G G2 G2 | %26
 G4 (F2 E2) | F4 z2 B2 | B4 f2 d2 | e4 e2 G2 | G4 c2 G2 | B4 B2 z2 | E2 E2 A2 A2 | G2 G2 F3 z | %34
 G2 G2 c2 c2 | B2 B2 G z e>e | e6 e2 | f4 z2!f! c>e | e4 d4 | !fermata!e6 z2 || z8 | z8 | z8 | z8 | %44
 z8 | z8 |!p! G3 F E3 F | G2 c2 =B2 z2 | c3 c c2 c2 | =B3 B cAGF | E2 A4 c2 | =B4 B z!mf! _B>B | %52
 e4 z eee | c4 z c c>c |!f! f4 f2 e2 | d4 z def | e2 e2 z!mf! =ABc | B2 B2 z!mp! EEF | G4 G2 A2 | %59
 F6 E2 ||[K:Bb][M:6/8]"^Voix d'hommes\ntenor Bien appuyé\n" z z z FBc | d3 fdc | B2 B d2 d | %63
 dcB f2 d | c2 z ccd | edc d2 g | f2 f cde | d3 c3 | B2 z4 ||[M:6/8]"^Voix de femmes" z z z d^cd | %70
 A3 d^cd | B2 B d^cd | f3 dcB | c2 z =Bcd | e3 ABc | d2 d fed | c3 c3 | B2 z4 || %78
[K:Bb][M:6/8]"^Voix Mixtes" z z z!mf![Q:1/4=114]"^Moderato" FBc | d3 fdc | B2 B d2 d | dcB f2 d | %82
 A2 z ccd | edc d2 g | f2 f cde | d3 c3 | !fermata!B2 z4 || %87
[K:Eb][M:4/4][Q:1/4=50]"^Largo" z2 z2 z2 G2 |!mf! ^F2 G2 c2 B2 | B6 z2 | G2 GG G2 A2 | F4 E2 G>G | %92
 G4 G3 G | G4 z2 G2 | A4- AAcA | A4!f! G2 B>B | f4 z2 e>d | e4 z2 B2 | f4- fBcd | e4 e2!mf! EF | %100
 G6 G2 | A4 (E2 F2) | (G4 F4) | E6 z2 ||[K:Bb][M:6/8][Q:1/4=114]"^Moderato" z z z!mf! FBc | %105
 d3 fdc | B2 B d2 d | dcB f2 d | A2 z ccd | edc d2 g | f2 f cde | d3 c3 | !fermata!B3 z3 || %113
[K:Eb][M:4/4][Q:1/4=92]"^Andante"!f! B2 =AB cBAc | B4 G2 z2 |!p! G2 ^FG _AGF_A | G4!mf! G2 B>c | %117
 A3 B G2 BG | G4 F!p! z E>F | G4 z2!mf! G>A | B4 z2!f! B>e | d2 d2 d2 f>d | e4 B2 B>e | d4 Bd f>d | %124
 e4 e2 e>e | e4 z2 e>e | e4- e z B>B | c2 d2 e2 e>f | g4 e4 | f4 (e2 d2) |!ff! e6 z2 | e4 e4 | %132
 e8 |] %133
V:2
!mf! E2 D2 E3 z | E2 F2 G3 z | G2 A2 G2 EF | E2 ED E2 z2 | A2 A2 A2 A2 | GAGE F2 G2 | F=EFE F2 F2 | %7
 _EGFE E2 D2 | EFEF GAFG | A2 A2!f! G2 GF | E4 E2 D2 | E6 z2 |!p! E4 E2 E2 | %13
 D2 B,2!mf! !fermata!B,2 GB | A2 A2 AcBA | A4 G2 z2 | F4 A2 A2 | G2 A2 G2 _G2 | F2 F2 F2 G2 | %19
 F3 E D2!p! G2 | E2 A2 F2 A2 | G4 z2 E2 | E2 E2 E2 E2 | E2 E2 F2 ^F2 | G4 =F4 | E2 z E E2 F2 | %26
 E4 E4 | D4 z2 G2 | G4 A2 F2 | G2 A2 G2 E2 | E4 E2 E2 | (D2 F2) E2 z2 | E2 E2 E2 E2 | E2 E2 D3 z | %34
 E2 E2 E2 E2 | E2 F2 E z G>G | G4 A2 B2 | A2 c2 A2!f! A>A | G4 A2 B2 | B2 A2 !fermata!A2 z2 || z8 | %41
 z8 | z8 | z8 | z8 | z8 |!p! E3 D C3 D | E2 EF G2 z2 | A3 G A2 _EF | G3 G GFED | C4 E2 F2 | %51
 G4 G z!mf! _B>A | G4 z GAB | A4 z A c>B |!f! =A4 A2 c2 | B4 z AGA | G2 G2 z!mf! ^FG_A | %57
 G2 G2 z!mp! EEE | E4 E2 E2 | (E4 D2) E2 ||[K:Bb][M:6/8] z z z FBA | B3 cBA | B2 B B2 B | %63
 BAB c2 B | A2 z AAB | cBA B2 e | d2 d cBA | B3 (B2 A) | B2 z4 || %69
[M:6/8]"^Voix de femmes" z z z GGG | ^F3 FGA | B2 B BBB | A3 F^FG | A2 z GA_B | A3 FFF | %75
 F2 F F^FG | G3 F=E_E | D2 z4 ||[K:Bb][M:6/8] z z z!mf! DFF | F3 AAA | B2 F B2 B | FFG AcB | %82
 A2 z AAB | cBA B2 B | B2 B ABc | B3 (B2 A) | !fermata!B2 z4 ||[K:Eb][M:4/4] z2 z2 z2 E2 | %88
!mf! E2 E2 E2 F2 | E6 z2 | E2 EF E2 E2 | (E2 D2) E2 E>F | E4 E3 E | D4 z2 E2 | E4- EEEE | %95
 D2 F2!f! E2 G>G | A4 z2 G>F | G4 z2 G2 | A4- AAAA | G2 A2 G2!mf! z2 | z2 E2 F2 E2 | E4 E4 | %102
 (E2 D2 C2) D2 | E6 z2 ||[K:Bb][M:6/8] z z z!mf! DFF | F3 AAA | B2 F B2 B | FFG AcB | A2 z AAB | %109
 cBA B2 B | B2 B ABc | B3 (B2 A) | !fermata!B3 z3 ||[K:Eb][M:4/4]!f! G2 ^FG _AGFA | G4 E2 z2 | %115
!p! E2 EE EEEE | E4!mf! E2 E>E | D3 D E2 EE | (E2 C2) D!p! z B,>B, | E4 z2!mf! E>F | G4 z2!f! G>B | %121
 A2 A2 A2 A>A | G2 A2 G2 G>B | A4 AA A>A | (G2 A2) B2 G>G | A4 G2 A2 | B2 A2 G z G>G | %127
 A2 A2 G2 A>A | (G2 B2) G4 | A4 (G2 F2) |!ff! G6 z2 | B4 (c2 _c2) | B8 |] %133
V:3
!mf! E2 F2 G3 z | G2 A2 B3 z | Bedc B2 EF | G2 F2 E2 z2 | c=BcB A2 e2 | _BcBG B2 B2 | AGAG A2 B2 | %7
 GBAG G2 F2 | EFGA Bcde | fedc!f! B2 BA | G4 F2 F2 | E6 z2 |!p! G4 GcB=A | %13
 B2 D2!mf! !fermata!E2 ed | c2 c2 cedc | c4 B2 z2 | B4 Bcdf | e2 B2 B2 Bc | d2 Bc d2 e2 | %19
 c4 B2!p! B2 | c2 c2 d2 d2 | e4 z2 G2 | G2 G2 A2 B2 | c2 c2 d2 e2 | B2 c2 A2 B2 | G2 z G G2 G2 | %26
 G4 (F2 E2) | F4 z2 B2 | B4 f2 d2 | e4 e2 G2 | G4 c2 G2 | B4 B2 z2 | E2 E2 A2 A2 | G2 G2 F3 z | %34
 G2 G2 c2 c2 | B2 B2 G z e>e | e6 e2 | f4 z2!f! c>e | e4 d4 | !fermata!e6 z2 || z8 | z8 | z8 | z8 | %44
 z8 | z8 |!p! G3 F E3 F | G2 c2 =B2 z2 | c3 c c2 c2 | =B3 B cAGF | E2 A4 c2 | =B4 B z!mf! _B>B | %52
 e4 z eee | c4 z c c>c |!f! f4 f2 e2 | d4 z def | e2 e2 z!mf! =ABc | B2 B2 z!mp! EEF | G4 G2 A2 | %59
 F6 E2 ||[K:Bb][M:6/8]"^Voix d'hommes\ntenor Bien appuyé\n" z z z FBc | d3 fdc | B2 B d2 d | %63
 dcB f2 d | c2 z ccd | edc d2 g | f2 f cde | d3 c3 | B2 z4 ||[M:6/8]"^Voix de femmes" z z z BBB | %70
 c3 AAA | d2 d BBB | c3 Bcd | f2 z fed | c3 edA | B2 B dAB | cGB AGA | B2 z4 || %78
[K:Bb][M:6/8] z z z!mf! FBc | d3 fdc | B2 B d2 d | dcB f2 d | A2 z ccd | edc d2 g | f2 f cde | %85
 d3 c3 | !fermata!B2 z4 ||[K:Eb][M:4/4] z2 z2 z2 G2 |!mf! ^F2 G2 c2 B2 | B6 z2 | G2 GG G2 A2 | %91
 F4 E2 G>G | G4 G3 G | G4 z2 G2 | A4- AAcA | A4!f! G2 B>B | f4 z2 e>d | e4 z2 B2 | f4- fBcd | %99
 e4 e2!mf! EF | G6 G2 | A4 (E2 F2) | (G4 F4) | E6 z2 ||[K:Bb][M:6/8] z z z!mf! FBc | d3 fdc | %106
 B2 B d2 d | dcB f2 d | A2 z ccd | edc d2 g | f2 f cde | d3 c3 | !fermata!B3 z3 || %113
[K:Eb][M:4/4]!f! B2 =AB cBAc | B4 G2 z2 |!p! G2 ^FG _AGF_A | G4!mf! G2 B>c | A3 B G2 BG | %118
 G4 F!p! z E>F | G4 z2!mf! G>A | B4 z2!f! B>e | d2 d2 d2 f>d | e4 B2 B>e | d4 Bd f>d | e4 e2 e>e | %125
 e4 z2 e>e | e4- e z B>B | c2 d2 e2 e>f | g4 e4 | f4 (e2 d2) |!ff! e6 z2 | e4 e4 | e8 |] %133

